!!!OTL: GOTT SEI DES KAISERS SCHUTZ
!!!ARE: Europa, Mitteleuropa, Rossiya
!!!SCT: B0734
!!!YEM: Copyright 1995, estate of Helmut Schaffrath.
**kern
*ICvox
*Ivox
*M4/4
*k[b-]
*F:
=1
{2cc
4dd
4dd
=2
4.cc
8a
2f}
=3
{2ff
4ee
4dd
=4
2cc
2dd}
=5
{2b-
4cc
4cc
=6
2a
4a}
{4bn
=7
2cc
2bn
=8
2a
2r}
=9
{2cc
4dd
4dd
=10
4.cc
8a
2f}
=11
{2ff
4ee
4dd
=12
2cc
2dd}
=13
{2b-
4cc
4cc
=14
2a
4a}
{4bn
=15
2cc
2bn
=16
2a
2r}
=17
{2b-
4a
4g
=18
2a
2a}
=19
{2ff
4dd
4cc#
=20
2dd
2cc}
=21
{2ff
4ee
4dd
=22
2cc
4cc}
{4b-
=23
2a
2g
=24
2f
2r}
==
!!!AGN: National - Hymne
!!!ONB: ESAC (Essen Associative Code) Database: BOEHME
!!!AMT: simple quadruple
!!!AIN: vox
!!!EED: Helmut Schaffrath
!!!EEV: 1.0
*-
